X: 30243
T: Old John's
R: jig
M: 6/8
K: Adorian
|:cAA cAA|GEE GAB|cAA cAA|Add ded|
cAA cAA|GEE GAB|cde ged|cAA A3:|
efg eaa|ged cAA|efg eaa|bag a3|
efg eaa|ged cAA|cde ged|cAA A3:|

